X: 1
T: The Collonel
C: David Young, 1740
S: "A Collection of the Newest Country Dances..."
S: Via discussion on strathspey list
R: slip jig
Z: Steve Wyrick
M: 9/8
L: 1/8
K: G
   c | (B/c/d)B dBG G2g | (e/f/g)e dBG TA2c | (B/c/d)B dBG G2B | TA3AFD D2 :|
|: c | TB2E (EF)E (EF)E | TB2E (EF)E D2c | TB2E EFE EFG | ABA AFD D2 :|
|: c | Bcd dBG Bcd | efg dBG ABc | Bcd dBG Bcd | ABA AFD D2 :|
|: c | TBAB EFE EFE | BAB EFE D2c | TBAB EFE EFG | ABA AFD D2 :|
